modules/stroke-7/icons/culture.svg

<?xml version="1.0" encoding="utf-8"?>
<!-- Generated by IcoMoon.io -->
<!DOCTYPE svg PUBLIC "-//W3C//DTD SVG 1.1//EN" "http://www.w3.org/Graphics/SVG/1.1/DTD/svg11.dtd">
<svg version="1.1" xmlns="http://www.w3.org/2000/svg" xmlns:xlink="http://www.w3.org/1999/xlink" width="32" height="32" viewBox="0 0 32 32">
<g id="icomoon-ignore">
</g>
<path d="M26.995 12.046h4.258l-15.457-9.152-15.049 9.152h3.857v15.994h-2.132v1.066h26.656v-1.066h-2.133v-15.994zM4.553 10.98l11.25-6.842 11.556 6.842h-22.807zM5.67 28.040v-15.994h3.199v15.994h-3.199zM9.935 28.040v-15.994h3.199v15.994h-3.199zM14.2 28.040v-15.994h3.199v15.994h-3.199zM18.465 28.040v-15.994h3.199v15.994h-3.199zM22.73 28.040v-15.994h3.199v15.994h-3.199z" fill="#000000"></path>
</svg>

<svg xmlns="http://www.w3.org/2000/svg" width="32" height="32"><path d="M26.995 12.046h4.258L15.796 2.894.747 12.046h3.857V28.04H2.472v1.066h26.656V28.04h-2.133V12.046zM4.553 10.98l11.25-6.842 11.556 6.842H4.552zM5.67 28.04V12.046h3.199V28.04H5.67zm4.265 0V12.046h3.199V28.04H9.935zm4.265 0V12.046h3.199V28.04H14.2zm4.265 0V12.046h3.199V28.04h-3.199zm4.265 0V12.046h3.199V28.04H22.73z"/></svg>
